X:95
T:The Boys of Tandragee
M:6/8
L:1/8
K:Edor
"Em"BAB E2A | BAB d2B | "D"AFE D2E | FED FGA | 
"Em"BAB E2A | BAB def | "D"edB AFA | "Em"BEE EFA :|
|: "Em"B2e efe | "D"def afd | "Em"efe dcd | "D"Bcd dBA | 
"Em"B2e efe | "D"def afd | edB AFA | "Em"BEE EFA :|

%%newpage

